src/img/leaf3.svg

<svg width="155" height="137" viewBox="0 0 155 137" fill="none" xmlns="http://www.w3.org/2000/svg">
<mask id="mask0_0_16" style="mask-type:alpha" maskUnits="userSpaceOnUse" x="0" y="1" width="179" height="172">
<path d="M81.3681 1.53198L-6.28765e-05 67.7827L96.919 172.21L178.287 105.959L81.3681 1.53198Z" fill="white"/>
</mask>
<g mask="url(#mask0_0_16)">
<path fill-rule="evenodd" clip-rule="evenodd" d="M161.152 114.156C163.721 91.221 146.88 69.6779 128.515 53.4577C125.451 50.7523 122.595 47.5302 118.755 46.273C114.913 45.0198 110.264 46.1307 109.21 49.5578C108.332 52.3977 110.07 55.6235 111.127 58.6638C112.533 62.706 112.75 66.9715 111.745 70.8086C111.087 73.3306 109.655 75.8738 107 76.4832C103.358 77.3207 99.5476 74.248 96.6022 71.456C91.1088 66.2471 85.617 61.0434 80.1297 55.8361C77.1834 53.0448 74.1662 50.1988 70.5575 48.3409C66.9479 46.4821 62.5738 45.7489 59.3421 47.384C56.1121 49.0211 54.7179 53.4831 57.1007 56.7033C58.094 58.0444 59.5578 59.0123 60.717 60.2349C61.8754 61.4565 62.7392 63.2142 62.0673 64.521C61.3919 65.8439 59.5255 66.0561 57.891 65.9885C52.2513 65.7629 46.6013 63.8988 41.0926 61.9413C35.5786 59.9814 30.0263 57.8905 24.362 57.1702C18.6951 56.4503 12.7872 57.2657 8.87149 60.6147C4.95489 63.9693 3.65656 70.2334 6.8912 75.0423C10.1372 79.8652 16.4848 81.7835 22.1627 82.7195C30.5832 84.1052 39.0521 84.3425 47.2119 83.4164C48.6837 83.2507 50.274 83.068 51.683 83.7976C54.2154 85.1068 54.5558 88.5221 53.5159 90.7757C52.337 93.3278 50.0297 95.1321 48.3036 97.3354C46.5714 99.537 45.4241 102.601 46.8505 105.387C48.8273 109.249 54.1925 110.09 58.4314 109.937C66.9144 109.634 75.1386 107.915 82.6307 104.877C85.3154 103.788 87.9996 102.509 91.0533 102.462C94.1088 102.417 97.689 104.018 98.8533 106.869C100.024 109.724 98.3315 112.649 95.9291 114.175C93.5284 115.705 90.5203 116.264 87.8145 117.33C82.7521 119.321 78.4774 124.016 79.7353 129.513C80.5634 133.129 83.6528 136.275 87.1607 138.129C90.6652 139.984 94.5642 140.727 98.3707 141.209C111.677 142.883 125.076 141.62 136.532 136.727C147.987 131.835 156.453 125.287 161.152 114.156Z" fill="#E8505B"/>
</g>
<mask id="mask1_0_16" style="mask-type:alpha" maskUnits="userSpaceOnUse" x="0" y="1" width="179" height="172">
<path d="M81.3681 1.53198L-6.28765e-05 67.7827L96.919 172.21L178.287 105.959L81.3681 1.53198Z" fill="white"/>
</mask>
<g mask="url(#mask1_0_16)">
<path fill-rule="evenodd" clip-rule="evenodd" d="M161.152 114.156C163.721 91.221 146.88 69.6779 128.515 53.4577C125.451 50.7523 122.595 47.5302 118.755 46.273C114.913 45.0198 110.264 46.1307 109.21 49.5578C108.332 52.3977 110.07 55.6235 111.127 58.6638C112.533 62.706 112.75 66.9715 111.745 70.8086C111.087 73.3306 109.655 75.8738 107 76.4832C103.358 77.3207 99.5476 74.248 96.6022 71.456C91.1088 66.2471 85.617 61.0434 80.1297 55.8361C77.1834 53.0448 74.1662 50.1988 70.5575 48.3409C66.9479 46.4821 62.5738 45.7489 59.3421 47.384C56.1121 49.0211 54.7179 53.4831 57.1007 56.7033C58.094 58.0444 59.5578 59.0123 60.717 60.2349C61.8754 61.4565 62.7392 63.2142 62.0673 64.521C61.3919 65.8439 59.5255 66.0561 57.891 65.9885C52.2513 65.7629 46.6013 63.8988 41.0926 61.9413C35.5786 59.9814 30.0263 57.8905 24.362 57.1702C18.6951 56.4503 12.7872 57.2657 8.87149 60.6147C4.95489 63.9693 3.65656 70.2334 6.8912 75.0423C10.1372 79.8652 16.4848 81.7835 22.1627 82.7195C30.5832 84.1052 39.0521 84.3425 47.2119 83.4164C48.6837 83.2507 50.274 83.068 51.683 83.7976C54.2154 85.1068 54.5558 88.5221 53.5159 90.7757C52.337 93.3278 50.0297 95.1321 48.3036 97.3354C46.5714 99.537 45.4241 102.601 46.8505 105.387C48.8273 109.249 54.1925 110.09 58.4314 109.937C66.9144 109.634 75.1386 107.915 82.6307 104.877C85.3154 103.788 87.9996 102.509 91.0533 102.462C94.1088 102.417 97.689 104.018 98.8533 106.869C100.024 109.724 98.3315 112.649 95.9291 114.175C93.5284 115.705 90.5203 116.264 87.8145 117.33C82.7521 119.321 78.4774 124.016 79.7353 129.513C80.5634 133.129 83.6528 136.275 87.1607 138.129C90.6652 139.984 94.5642 140.727 98.3707 141.209C111.677 142.883 125.076 141.62 136.532 136.727C147.987 131.835 156.453 125.287 161.152 114.156Z" fill="#F8CD99"/>
<mask id="mask2_0_16" style="mask-type:alpha" maskUnits="userSpaceOnUse" x="4" y="16" width="190" height="187">
<path d="M69.2679 16.1241L4.59763 68.8326L128.557 202.53L193.227 149.822L69.2679 16.1241Z" fill="white"/>
</mask>
<g mask="url(#mask2_0_16)">
<path fill-rule="evenodd" clip-rule="evenodd" d="M4.59778 68.8325C4.60208 68.8454 4.77976 68.8539 5.12046 68.8568C5.50171 68.8593 6.00545 68.8582 6.64718 68.8638C7.98673 68.8618 9.96027 68.8585 12.5125 68.9237C17.6118 69.0418 25.0406 69.4556 34.2364 70.9676C38.8321 71.705 43.8623 72.7148 49.2555 73.8887C54.6477 75.0732 60.4073 76.3711 66.4409 77.9497C72.4719 79.5272 78.7855 81.3605 85.2124 83.7279C88.4293 84.899 91.6452 86.27 94.9282 87.6662C98.2053 89.0689 101.528 90.493 104.89 91.9296C118.326 97.7279 131.005 103.636 142.158 109.827C153.317 115.999 162.912 122.449 170.49 128.454C178.089 134.447 183.675 139.934 187.349 143.858C189.177 145.83 190.569 147.384 191.475 148.464L192.53 149.678C192.771 149.95 192.9 150.086 192.908 150.082C192.917 150.074 192.81 149.927 192.584 149.641L191.585 148.39C190.711 147.282 189.35 145.701 187.544 143.699C183.923 139.72 178.367 134.161 170.778 128.101C163.208 122.033 153.601 115.512 142.422 109.293C131.25 103.055 118.547 97.1141 105.099 91.3136C101.736 89.8735 98.4095 88.4521 95.1308 87.0508C91.8563 85.6591 88.6094 84.2791 85.3761 83.1067C78.907 80.7362 72.5683 78.9054 66.5201 77.3419C60.4701 75.7783 54.7001 74.4954 49.2992 73.3343C43.8965 72.186 38.8534 71.2032 34.2438 70.4885C25.0186 69.0346 17.5708 68.6935 12.4757 68.6584C9.9243 68.6334 7.9533 68.6769 6.62318 68.7251L5.10932 68.7892C4.76945 68.8052 4.59607 68.8193 4.59692 68.8316" fill="#263238"/>
</g>
<path fill-rule="evenodd" clip-rule="evenodd" d="M87.3894 82.3382C87.4503 82.2953 87.1145 81.7347 86.4531 80.7581C85.7996 79.7768 84.7844 78.404 83.491 76.7383C80.9193 73.4012 77.1336 68.9649 72.9271 64.0953C68.7197 59.2247 65.0381 54.7268 62.5493 51.3405C61.2948 49.6565 60.2999 48.2772 59.6314 47.3081C58.9559 46.3464 58.5494 45.8349 58.4823 45.8779C58.4205 45.9199 58.6999 46.5132 59.2677 47.5526C59.8267 48.5959 60.7263 50.0511 61.8996 51.803C64.2337 55.3201 67.8305 59.9136 72.0414 64.7897C76.2084 69.5766 79.9811 73.9087 82.8615 77.2209C84.1445 78.7285 85.2313 79.998 86.1008 81.0183C86.8734 81.9109 87.3276 82.3852 87.3894 82.3382ZM49.9017 107.715C49.9281 107.739 50.4332 107.354 51.3197 106.637C52.2098 105.926 53.4937 104.889 55.1174 103.648C58.3429 101.149 62.9109 97.8177 68.0869 94.3211C73.2733 90.8327 78.0789 87.8391 81.6088 85.7544C83.3688 84.701 84.8093 83.8812 85.8041 83.3093C86.8015 82.742 87.3443 82.4099 87.3294 82.3771C87.3118 82.3448 86.7356 82.6142 85.7083 83.1276C84.6828 83.6429 83.2097 84.4143 81.4206 85.4281C77.8327 87.4369 72.9769 90.3914 67.7763 93.8897C62.5845 97.3975 58.0384 100.786 54.8666 103.368C53.2692 104.647 52.0188 105.728 51.1736 106.488C50.3293 107.254 49.8762 107.688 49.9017 107.715ZM145.071 106.279C145.095 106.272 145.013 106.046 144.837 105.626L144.035 103.793C143.329 102.204 142.249 99.9231 140.877 97.1174C138.138 91.503 134.11 83.8359 129.551 75.4186C124.991 66.9993 120.899 59.368 118.046 53.8056L114.684 47.2065C114.317 46.4893 114.011 45.9016 113.763 45.4141C113.541 45.0067 113.419 44.7982 113.394 44.8033C113.371 44.8137 113.454 45.0379 113.63 45.4586C113.845 45.9534 114.111 46.5575 114.431 47.2894C115.136 48.8795 116.217 51.1596 117.587 53.9661C120.328 59.5797 124.354 67.2483 128.915 75.6685C133.472 84.0839 137.566 91.7138 140.42 97.2797C141.8 99.9906 142.938 102.219 143.779 103.875C144.15 104.592 144.452 105.183 144.705 105.669C144.925 106.075 145.049 106.286 145.072 106.279" fill="#263238"/>
<path fill-rule="evenodd" clip-rule="evenodd" d="M80.814 132.964C80.8296 132.986 81.0614 132.902 81.489 132.723L83.3469 131.902C85.0465 131.129 87.3413 130.087 90.13 128.817C95.8618 126.213 103.827 122.712 112.639 118.855C121.455 114.996 129.387 111.416 135.045 108.691C137.876 107.327 140.152 106.202 141.704 105.393C142.416 105.013 143.004 104.703 143.481 104.449C143.884 104.226 144.09 104.095 144.075 104.073C144.059 104.052 143.828 104.136 143.396 104.314C142.9 104.536 142.286 104.809 141.54 105.138L134.757 108.219C129.031 110.825 121.061 114.328 112.245 118.186C103.434 122.041 95.5025 125.622 89.8431 128.346C87.0111 129.709 84.7364 130.834 83.1846 131.644C82.4736 132.025 81.8849 132.335 81.4056 132.589C81.0045 132.812 80.7994 132.94 80.814 132.964Z" fill="#263238"/>
</g>
</svg>

<svg xmlns="http://www.w3.org/2000/svg" width="155" height="137" fill="none"><mask id="a" width="179" height="172" x="0" y="1" maskUnits="userSpaceOnUse" style="mask-type:alpha"><path fill="#fff" d="M81.368 1.532 0 67.782 96.919 172.21l81.368-66.251L81.368 1.532Z"/></mask><g mask="url(#a)"><path fill="#E8505B" fill-rule="evenodd" d="M161.152 114.156c2.569-22.935-14.272-44.478-32.637-60.698-3.064-2.706-5.92-5.928-9.76-7.185-3.842-1.253-8.491-.142-9.545 3.285-.878 2.84.86 6.066 1.917 9.106 1.406 4.042 1.623 8.308.618 12.145-.658 2.522-2.09 5.065-4.745 5.674-3.642.838-7.452-2.235-10.398-5.027-5.493-5.209-10.985-10.413-16.472-15.62-2.947-2.791-5.964-5.637-9.572-7.495-3.61-1.859-7.984-2.592-11.216-.957-3.23 1.637-4.624 6.1-2.241 9.32.993 1.34 2.457 2.308 3.616 3.53 1.158 1.222 2.022 2.98 1.35 4.287-.675 1.323-2.541 1.535-4.176 1.468-5.64-.226-11.29-2.09-16.798-4.048-5.514-1.96-11.067-4.05-16.731-4.77-5.667-.72-11.575.095-15.49 3.444-3.917 3.354-5.215 9.618-1.98 14.427 3.245 4.823 9.593 6.742 15.27 7.677 8.421 1.386 16.89 1.624 25.05.697 1.472-.165 3.062-.348 4.471.382 2.532 1.309 2.873 4.724 1.833 6.978-1.179 2.552-3.486 4.356-5.212 6.56-1.733 2.201-2.88 5.265-1.454 8.051 1.977 3.862 7.343 4.703 11.581 4.55 8.483-.303 16.708-2.022 24.2-5.06 2.684-1.089 5.369-2.368 8.422-2.415 3.056-.045 6.636 1.556 7.8 4.407 1.171 2.855-.521 5.78-2.924 7.306-2.4 1.53-5.409 2.089-8.115 3.155-5.062 1.991-9.337 6.686-8.079 12.183.828 3.616 3.918 6.762 7.426 8.616 3.504 1.855 7.403 2.598 11.21 3.08 13.306 1.674 26.705.411 38.161-4.482 11.455-4.892 19.921-11.44 24.62-22.571Z" clip-rule="evenodd"/></g><mask id="b" width="179" height="172" x="0" y="1" maskUnits="userSpaceOnUse" style="mask-type:alpha"><path fill="#fff" d="M81.368 1.532 0 67.782 96.919 172.21l81.368-66.251L81.368 1.532Z"/></mask><g mask="url(#b)"><path fill="#F8CD99" fill-rule="evenodd" d="M161.152 114.156c2.569-22.935-14.272-44.478-32.637-60.698-3.064-2.706-5.92-5.928-9.76-7.185-3.842-1.253-8.491-.142-9.545 3.285-.878 2.84.86 6.066 1.917 9.106 1.406 4.042 1.623 8.308.618 12.145-.658 2.522-2.09 5.065-4.745 5.674-3.642.838-7.452-2.235-10.398-5.027-5.493-5.209-10.985-10.413-16.472-15.62-2.947-2.791-5.964-5.637-9.572-7.495-3.61-1.859-7.984-2.592-11.216-.957-3.23 1.637-4.624 6.1-2.241 9.32.993 1.34 2.457 2.308 3.616 3.53 1.158 1.222 2.022 2.98 1.35 4.287-.675 1.323-2.541 1.535-4.176 1.468-5.64-.226-11.29-2.09-16.798-4.048-5.514-1.96-11.067-4.05-16.731-4.77-5.667-.72-11.575.095-15.49 3.444-3.917 3.354-5.215 9.618-1.98 14.427 3.245 4.823 9.593 6.742 15.27 7.677 8.421 1.386 16.89 1.624 25.05.697 1.472-.165 3.062-.348 4.471.382 2.532 1.309 2.873 4.724 1.833 6.978-1.179 2.552-3.486 4.356-5.212 6.56-1.733 2.201-2.88 5.265-1.454 8.051 1.977 3.862 7.343 4.703 11.581 4.55 8.483-.303 16.708-2.022 24.2-5.06 2.684-1.089 5.369-2.368 8.422-2.415 3.056-.045 6.636 1.556 7.8 4.407 1.171 2.855-.521 5.78-2.924 7.306-2.4 1.53-5.409 2.089-8.115 3.155-5.062 1.991-9.337 6.686-8.079 12.183.828 3.616 3.918 6.762 7.426 8.616 3.504 1.855 7.403 2.598 11.21 3.08 13.306 1.674 26.705.411 38.161-4.482 11.455-4.892 19.921-11.44 24.62-22.571Z" clip-rule="evenodd"/><mask id="c" width="190" height="187" x="4" y="16" maskUnits="userSpaceOnUse" style="mask-type:alpha"><path fill="#fff" d="M69.268 16.124 4.598 68.833 128.557 202.53l64.67-52.708L69.267 16.124Z"/></mask><g mask="url(#c)"><path fill="#263238" fill-rule="evenodd" d="M4.598 68.832c.004.013.182.022.522.025.382.002.885.001 1.527.007 1.34-.002 3.313-.005 5.865.06 5.1.118 12.529.532 21.724 2.044 4.596.737 9.626 1.747 15.02 2.92 5.392 1.185 11.151 2.483 17.185 4.062 6.03 1.577 12.344 3.41 18.771 5.778 3.217 1.171 6.433 2.542 9.716 3.938 3.277 1.403 6.6 2.827 9.962 4.264 13.436 5.798 26.115 11.706 37.268 17.897 11.159 6.172 20.754 12.622 28.332 18.627 7.599 5.993 13.185 11.48 16.859 15.404 1.828 1.972 3.22 3.526 4.126 4.606l1.055 1.214c.241.272.37.408.378.404.009-.008-.098-.155-.324-.441l-.999-1.251c-.874-1.108-2.235-2.689-4.041-4.691-3.621-3.979-9.177-9.538-16.766-15.598-7.57-6.068-17.177-12.589-28.356-18.808-11.172-6.238-23.875-12.179-37.323-17.98-3.363-1.44-6.69-2.86-9.968-4.262-3.275-1.392-6.522-2.772-9.755-3.944-6.469-2.37-12.808-4.202-18.856-5.765-6.05-1.564-11.82-2.847-17.22-4.008-5.403-1.148-10.447-2.13-15.056-2.846-9.225-1.453-16.673-1.794-21.768-1.83-2.552-.025-4.523.019-5.853.067l-1.514.064c-.34.016-.513.03-.512.043" clip-rule="evenodd"/></g><path fill="#263238" fill-rule="evenodd" d="M87.39 82.338c.06-.043-.275-.603-.937-1.58-.653-.981-1.669-2.354-2.962-4.02-2.572-3.337-6.357-7.773-10.564-12.643-4.207-4.87-7.889-9.368-10.378-12.755a145.543 145.543 0 0 1-2.918-4.032c-.675-.962-1.082-1.473-1.149-1.43-.062.042.218.635.786 1.675.559 1.043 1.458 2.498 2.632 4.25 2.334 3.517 5.93 8.11 10.141 12.987 4.167 4.787 7.94 9.119 10.82 12.43 1.283 1.508 2.37 2.778 3.24 3.798.772.893 1.227 1.367 1.288 1.32Zm-37.488 25.377c.026.024.531-.361 1.418-1.078.89-.711 2.174-1.748 3.797-2.989 3.226-2.499 7.794-5.83 12.97-9.327 5.186-3.488 9.992-6.482 13.522-8.567 1.76-1.053 3.2-1.873 4.195-2.445.998-.567 1.54-.9 1.525-.932-.017-.032-.593.237-1.62.75a98.896 98.896 0 0 0-4.288 2.301c-3.588 2.009-8.444 4.963-13.645 8.462-5.191 3.507-9.738 6.896-12.91 9.478a85.828 85.828 0 0 0-3.692 3.12c-.845.766-1.298 1.2-1.272 1.227Zm95.169-1.436c.024-.007-.058-.233-.234-.653l-.802-1.833c-.706-1.589-1.786-3.87-3.158-6.676-2.739-5.614-6.767-13.281-11.326-21.698-4.56-8.42-8.652-16.051-11.505-21.613l-3.362-6.6c-.367-.717-.673-1.304-.921-1.792-.222-.407-.344-.616-.369-.61-.023.01.06.234.236.655.215.494.481 1.098.801 1.83.705 1.59 1.786 3.87 3.156 6.677 2.741 5.614 6.767 13.282 11.328 21.702 4.557 8.416 8.651 16.046 11.505 21.612 1.38 2.71 2.518 4.939 3.359 6.595.371.717.673 1.308.926 1.794.22.406.344.617.367.61" clip-rule="evenodd"/><path fill="#263238" fill-rule="evenodd" d="M80.814 132.964c.016.022.247-.062.675-.241l1.858-.821c1.7-.773 3.994-1.815 6.783-3.085 5.732-2.604 13.697-6.105 22.509-9.962 8.816-3.859 16.748-7.439 22.406-10.164 2.831-1.364 5.107-2.489 6.659-3.298.712-.38 1.3-.69 1.777-.944.403-.223.609-.354.594-.376-.016-.021-.247.063-.679.241a373 373 0 0 1-1.856.824l-6.783 3.081c-5.726 2.606-13.696 6.109-22.512 9.967-8.811 3.855-16.743 7.436-22.402 10.16-2.832 1.363-5.107 2.488-6.658 3.298-.711.381-1.3.691-1.78.945-.4.223-.606.351-.591.375Z" clip-rule="evenodd"/></g></svg>
